svg/white/xlm.svg

<?xml version="1.0" encoding="UTF-8"?>
<svg width="32px" height="32px" viewBox="0 0 32 32" version="1.1" xmlns="http://www.w3.org/2000/svg" xmlns:xlink="http://www.w3.org/1999/xlink">
    <!-- Generator: Sketch 53 (72520) - https://sketchapp.com -->
    <title>svg/white/xlm</title>
    <desc>Created with Sketch.</desc>
    <g id="white/xlm" stroke="none" stroke-width="1" fill="none" fill-rule="evenodd">
        <path d="M16,32 C7.163444,32 0,24.836556 0,16 C0,7.163444 7.163444,0 16,0 C24.836556,0 32,7.163444 32,16 C32,24.836556 24.836556,32 16,32 Z M23.1308017,9.29198312 L20.7291139,10.5156118 L9.13164557,16.4227848 C9.09242915,16.1236792 9.07269698,15.8223406 9.07257384,15.5206751 C9.07580048,13.0715896 10.3753566,10.8072416 12.4883623,9.56900192 C14.6013679,8.33076223 17.2119973,8.3037074 19.350211,9.4978903 L20.7248945,8.79746835 L20.9299578,8.692827 C18.3622552,6.82914903 14.9662049,6.56318241 12.1396743,8.00440318 C9.31314376,9.44562395 7.53384964,12.3504489 7.53417722,15.5232068 C7.53417722,15.7381153 7.54233474,15.95218 7.55864979,16.1654008 C7.60537279,16.7828114 7.27658347,17.3678434 6.72489451,17.6489451 L6,18.0185654 L6,19.742616 L8.13417722,18.6548523 L8.82531646,18.3021097 L9.50632911,17.9552743 L21.7324895,11.7257384 L23.1063291,11.0261603 L25.9459916,9.57890295 L25.9459916,7.8556962 L23.1308017,9.29198312 Z M25.9459916,11.3037975 L10.2008439,19.3206751 L8.82700422,20.0219409 L6,21.4624473 L6,23.1848101 L8.80759494,21.7544304 L11.2092827,20.5308017 L22.8185654,14.6151899 C22.8578103,14.9162722 22.877542,15.2195775 22.8776371,15.5232068 C22.8761174,17.9752241 21.575061,20.2427299 19.4589194,21.4814132 C17.3427777,22.7200964 14.7286351,22.7443517 12.5898734,21.5451477 L12.5054852,21.5898734 L11.0151899,22.3493671 C13.5822889,24.2130916 16.9777297,24.4796922 19.8042463,23.0394596 C22.6307629,21.599227 24.4107861,18.6955033 24.4118143,15.5232068 C24.4118143,15.3063291 24.4033755,15.0894515 24.3873418,14.8751055 C24.3406963,14.2579388 24.6690561,13.673079 25.2202532,13.3915612 L25.9459916,13.0219409 L25.9459916,11.3037975 Z" id="Combined-Shape" fill="#FFFFFF" fill-rule="nonzero"></path>
    </g>
</svg>

<svg width="32" height="32" viewBox="0 0 32 32" xmlns="http://www.w3.org/2000/svg"><path d="M16 32C7.163 32 0 24.837 0 16S7.163 0 16 0s16 7.163 16 16-7.163 16-16 16zm7.13-22.708l-2.4 1.224-11.598 5.907A6.909 6.909 0 0 1 19.35 9.498l1.374-.7.205-.105a8.439 8.439 0 0 0-13.371 7.472 1.535 1.535 0 0 1-.834 1.484l-.725.37v1.724l2.134-1.088.691-.353.681-.347 12.226-6.23 1.374-.699 2.84-1.447V7.856L23.13 9.292zm2.816 2.012L10.201 19.32l-1.374.7L6 21.463v1.723l2.808-1.43 2.401-1.224 11.61-5.916a6.909 6.909 0 0 1-10.229 6.93l-.085.045-1.49.76a8.439 8.439 0 0 0 13.372-7.475 1.536 1.536 0 0 1 .833-1.483l.726-.37v-1.718z" fill="#FFF"/></svg>
